X:3093
T:Mit fulde glas og sangens raske toner
T:Mine \onsker
C:C. D. Stegmann, words: Jen Zetlitz
O:Norway
R:Drinking song
F:http://abc.musicaviva.com/tunes/stegmann-c-d/zetlitz-mit-fulde-glas-og.abc
M:2/4
L:1/8
K:C
G|"C"c2"F"c2|"C"c3B|"F"A>A c>A|"C"A2G c|
w:Mit ful-le Glas og San-gens ras-ke to-ner og
"C"E3F|"C"G3G|"C"(c>G) (F>E)|"G"(E2D) d|"D7"d3d|"G"B3d|
w:vit-tig Sk\aemt og Mun--ter--hed_ jeg s\ael-ger ej for
"C"c>B "Am"A>"A7"G|"D"d2 "G"BB|"C"cedc|"G"B2 "D"A2|"G"G2 z G|
w:al-le Fyr-sters Kro-ner og Sa-lo-mo-ners Her-lig-hed, thi
"C"(G2 c)E|"G7"(G2 F)F|"G7"d3F|"C"(F2 E) G|"G7"AB "C"cG|
w:H\oj--hed ej_ lykk-sa-lig g\or,_ og al-ting j\aev-nes,
"G7"AB "C"cG|"F"AB cd|"C"e4|"G7"d4|"C"c3 z|]
w:naar man d\or, og al-ting j\aev-nes, naar man d\or.
W:
W:Mit fulle Glas og Sangens raske toner
W:og vittig Sk\aemt og Munterhed
W:jeg s\aelger ej for alle Gyrsters Kroner
W:og Salomoners Herlighed,
W:this H\ojhed ej lykksalig g\or,
W:og alting j\aevnes , naar man d\or.
W:
W:Et evigt Navn er dejligt, kan jeg t\aenke,
W:og det paa Kviste ikke gror;
W:men det mit St\ov i Graven ej skal kr\aenke,
W:om man mig aldrig kalder stor;
W:thi naar man f\orst dernede er,
W:man Verdens Ros og Spot beler.
W:
W:En T\onde Guld var artig nok at have,
W:dermed at pleje K\aelderen;
W:men efter den i Jordens sk\od at grave,
W:det overlader jeg til den,
W:som ikke tror og ikke ser
W:at Armod tit af Hjertet ler.
W:
W:Mit \Onskes Maal er kun en k\olig K\aelder,
W:hvor Vinen ingern Skade ta'er,
W:et Fad, som fyldes atter naar det h\aelder,
W:et Hus, som t\aette Vegge har,
W:et roligt Sind og Munterhed,
W:som f\olger mig til Gravens Bred.
W:
W:Og \onsker jeg en rask og k\aelen Pige,
W:som elsker mig - med andre Ord,
W:jeg \onsker mig et lidet Himmerige
W:paa denne syndefulde Jord
W:og B\orn, som eje Kraft og Marv
W:og faa min Munterhed i Arv.
W:
W:Jeg v\'ed det grant, vor Jord er ej forbandet,
W:nej, overalt jeg ser Velsignelsen;
W:den stiger op af Havet, gror paa Landet
W:og regner ned fra Himmelen.
W:Jeg v\'ed det grant - vor Lod er stor,
W:velsignet er den faldne Jord.
W:
W:Vinrakner gro, og Venskabs Luer br\aende
W:paa Jorden - Piger pryde den,
W:og fra dens ene til dens anden Ende
W:jeg blomstre ser Velsignelsen.
W:Lyksalighed er Jordens Maal -
W:Vins, Venskabs, muntre Pigers Skaal!
W:
W:
W:  From Musica Viva - http://www.musicaviva.com
W:  the Internet center for free sheet music downloads.


